picto/changing-table-framed.svg

<svg class="color-immutable" width="30" height="30" viewBox="0 0 30 30" fill="none" xmlns="http://www.w3.org/2000/svg"><path d="M29.9999 0H0V29.9999H29.9999V0Z" fill="#2D327D"/><path d="M25.4999 2.99999C26.3249 2.99999 26.9999 3.67499 26.9999 4.49999V25.4999C26.9999 26.3249 26.3249 26.9999 25.4999 26.9999H4.49999C3.67499 26.9999 2.99999 26.3249 2.99999 25.4999V4.49999C2.99999 3.67499 3.67499 2.99999 4.49999 2.99999H25.4999ZM25.4999 2.62499H4.49999C3.46612 2.62499 2.62499 3.46612 2.62499 4.49999V25.4999C2.62499 26.5338 3.46612 27.3749 4.49999 27.3749H25.4999C26.5338 27.3749 27.3749 26.5338 27.3749 25.4999V4.49999C27.3749 3.46612 26.5338 2.62499 25.4999 2.62499Z" fill="white"/><path d="M13.4063 19.368C13.7326 19.0417 14.1646 18.8596 14.6251 18.8534V18.0692L10.8515 19.6607C11.0318 19.9402 11.129 20.2655 11.13 20.6058H12.8913C12.8927 20.1382 13.0754 19.6988 13.4063 19.368Z" fill="white"/><path d="M10.615 19.368C10.619 19.372 10.6229 19.3761 10.6269 19.3802L12.5151 18.5838L9.37498 17.6819V18.8531C9.84343 18.8539 10.2837 19.0367 10.615 19.368Z" fill="white"/><path d="M14.625 17.6939V17.118H9.37498V17.3222L13.0224 18.3698L14.625 17.6939Z" fill="white"/><path d="M15.5865 20.4182L15.5875 20.4178L14.4949 19.1616C14.1638 19.1962 13.8563 19.3419 13.6181 19.5801C13.3634 19.8348 13.2162 20.1678 13.1954 20.5246L13.7102 21.1167L13.7108 21.1165L12.4546 22.6135C12.1671 22.9561 12.2299 23.482 12.5948 23.7882C12.9597 24.0944 13.4885 24.0649 13.776 23.7224L15.6366 21.5049C15.8985 21.1931 15.869 20.7298 15.5865 20.4182Z" fill="white"/><path d="M9.50497 19.1616L8.41245 20.4178L8.41342 20.4182C8.1309 20.7298 8.10142 21.1931 8.3631 21.505L10.2237 23.7224C10.5112 24.065 11.04 24.0945 11.4049 23.7883C11.7697 23.4821 11.8325 22.9562 11.5451 22.6136L10.2889 21.1166L10.2895 21.1168L10.8043 20.5247C10.7835 20.1678 10.6363 19.8349 10.3816 19.5802C10.1436 19.3419 9.83609 19.1962 9.50497 19.1616Z" fill="white"/><path d="M17.25 13.1752H14.25H9.74998H6.74999C6.33576 13.1752 5.99999 13.511 5.99999 13.9252C5.99999 14.3395 6.33576 14.6752 6.74999 14.6752H9.74998V16.7806H14.25V14.6752H17.25C17.6642 14.6752 18 14.3395 18 13.9252C18 13.5111 17.6642 13.1752 17.25 13.1752Z" fill="white"/><path d="M12 12.8002C13.2426 12.8002 14.25 11.7929 14.25 10.5502C14.25 9.3076 13.2426 8.30025 12 8.30025C10.7573 8.30025 9.74998 9.3076 9.74998 10.5502C9.74998 11.7929 10.7573 12.8002 12 12.8002Z" fill="white"/></svg>

<svg class="color-immutable" width="30" height="30" viewBox="0 0 30 30" fill="none" xmlns="http://www.w3.org/2000/svg"><path d="M30 0H0v30h30V0Z" fill="#2D327D"/><path d="M25.5 3c.825 0 1.5.675 1.5 1.5v21c0 .825-.675 1.5-1.5 1.5h-21c-.825 0-1.5-.675-1.5-1.5v-21C3 3.675 3.675 3 4.5 3h21Zm0-.375h-21A1.877 1.877 0 0 0 2.625 4.5v21c0 1.034.841 1.875 1.875 1.875h21a1.877 1.877 0 0 0 1.875-1.875v-21A1.877 1.877 0 0 0 25.5 2.625Z" fill="#fff"/><path d="M13.406 19.368a1.746 1.746 0 0 1 1.22-.515v-.784l-3.774 1.592c.18.28.277.604.278.945h1.761c.002-.468.184-.907.515-1.238ZM10.615 19.368l.012.012 1.888-.796-3.14-.902v1.171c.468 0 .909.184 1.24.515ZM14.625 17.694v-.576h-5.25v.204l3.647 1.048 1.603-.676Z" fill="#fff"/><path d="M15.586 20.418h.002l-1.093-1.256c-.331.034-.639.18-.877.418a1.446 1.446 0 0 0-.423.945l.515.592-1.255 1.496c-.288.343-.225.869.14 1.175.365.306.893.277 1.181-.066l1.86-2.217c.263-.312.233-.775-.05-1.087ZM9.505 19.162l-1.093 1.256h.001c-.282.312-.312.775-.05 1.087l1.86 2.217c.288.343.817.372 1.182.066s.428-.832.14-1.174l-1.256-1.497.515-.592a1.446 1.446 0 0 0-.422-.945 1.447 1.447 0 0 0-.877-.418ZM17.25 13.175H6.75a.75.75 0 1 0 0 1.5h3v2.106h4.5v-2.106h3a.75.75 0 1 0 0-1.5ZM12 12.8a2.25 2.25 0 1 0 0-4.5 2.25 2.25 0 0 0 0 4.5Z" fill="#fff"/></svg>
